packages/ffe-icons/icons/filled/md/panorama.svg

<svg xmlns="http://www.w3.org/2000/svg" height="24" viewBox="0 -960 960 960" width="24"><path d="M172.309-180.001q-30.308 0-51.308-21t-21-51.308v-455.382q0-30.308 21-51.308t51.308-21h615.382q30.308 0 51.308 21t21 51.308v455.382q0 30.308-21 51.308t-51.308 21H172.309ZM449.231-349.23l-65.538-83.999q-5.615-6.846-14.269-6.846t-14.269 7.231l-63.076 83.921q-7.231 9.231-2 19.077Q295.31-320 306.156-320h350.765q10.846 0 16.077-9.846 5.231-9.846-1.615-19.077l-95.384-127.768q-5.615-7.23-14.461-7.23t-14.462 7.23L449.231-349.23Z"/></svg>

<svg xmlns="http://www.w3.org/2000/svg" height="24" viewBox="0 -960 960 960" width="24"><path d="M172.31-180Q142-180 121-201q-21-21-21-51.31v-455.38Q100-738 121-759q21-21 51.31-21h615.38Q818-780 839-759q21 21 21 51.31v455.38Q860-222 839-201q-21 21-51.31 21H172.31Zm276.92-169.23-65.54-84q-5.61-6.84-14.27-6.84-8.65 0-14.27 7.23l-63.07 83.92q-7.23 9.23-2 19.07 5.23 9.85 16.08 9.85h350.76q10.85 0 16.08-9.85 5.23-9.84-1.62-19.07L576-476.69q-5.62-7.23-14.46-7.23-8.85 0-14.46 7.23l-97.85 127.46Z"/></svg>
